icons/cypress.svg

<svg width="16" height="16" viewBox="0 0 16 16" fill="none" xmlns="http://www.w3.org/2000/svg">
<path fill-rule="evenodd" clip-rule="evenodd" d="M4.27684 3.29654C5.33664 2.45691 6.64869 2.00005 8.00035 2C9.40708 1.9992 10.7694 2.49315 11.8492 3.39554C12.9289 4.29794 13.6576 5.55138 13.9077 6.93684C14.1578 8.3223 13.9136 9.75168 13.2176 10.9752C12.5216 12.1987 11.4182 13.1385 10.1001 13.6305L9.92918 13.6941L10.4246 12.3951L10.451 12.381C11.2594 11.9272 11.9262 11.2579 12.3772 10.4474C12.8281 9.63698 13.0456 8.7172 13.0053 7.79042C12.9651 6.86364 12.6687 5.96621 12.1492 5.19798C11.6297 4.42974 10.9074 3.82082 10.0627 3.43896C9.21797 3.0571 8.28396 2.91727 7.36458 3.03504C6.44519 3.15281 5.57648 3.52356 4.85509 4.10603C4.1337 4.68849 3.58792 5.45985 3.27847 6.33428C2.96902 7.2087 2.90804 8.1519 3.1023 9.05895L3.11799 9.12341C3.37557 10.2264 3.99713 11.2102 4.88229 11.916C5.76744 12.6218 6.86449 13.0083 7.99622 13.0132C8.03018 13.0132 8.06393 13.0121 8.09758 13.0111C8.13102 13.0101 8.16435 13.0091 8.19769 13.0091C8.2325 13.007 8.266 12.9951 8.29434 12.9747C8.32269 12.9544 8.34471 12.9265 8.35788 12.8942L8.58412 12.3455L9.54358 10.0159L7.89796 5.9906H9.01844L10.11 8.73914L11.195 5.99473H12.261L9.53037 12.6405L9.35285 13.0702L9.27028 13.2743C9.18498 13.4811 9.04246 13.6593 8.85948 13.7878C8.6765 13.9163 8.46066 13.9899 8.23733 13.9999C8.15806 14.0048 8.08127 14.0048 7.9987 14.0048H7.98631C7.10386 14.0006 6.23302 13.8032 5.4349 13.4264L5.31931 13.376C4.11014 12.7714 3.14038 11.7759 2.56719 10.5508C1.99401 9.32563 1.85098 7.94268 2.16128 6.62603C2.47158 5.30938 3.21704 4.13618 4.27684 3.29654ZM6.83046 7.05901C6.65371 6.94314 6.44617 6.88328 6.23492 6.88722C6.09062 6.88346 5.94712 6.90989 5.81362 6.96482C5.68011 7.01974 5.55953 7.10196 5.45959 7.2062C5.35514 7.31456 5.27325 7.44261 5.21868 7.58292C5.1641 7.72322 5.13794 7.87298 5.14169 8.0235C5.13795 8.17243 5.16391 8.32062 5.21807 8.45939C5.27223 8.59816 5.35349 8.72473 5.45711 8.8317C5.55733 8.93558 5.67796 9.01755 5.8114 9.07245C5.94484 9.12735 6.0882 9.15399 6.23244 9.15068C6.44381 9.15787 6.65228 9.09979 6.82954 8.98433C7.00679 8.86887 7.14426 8.70162 7.22328 8.50528L7.26869 8.39785L8.22651 8.72344L8.17531 8.84575C8.01856 9.22973 7.74925 9.55718 7.40287 9.78495C7.05649 10.0127 6.64929 10.1301 6.23492 10.1217C5.95335 10.1302 5.67299 10.0813 5.41093 9.97789C5.14887 9.87446 4.91061 9.71869 4.71068 9.52007C4.50993 9.3267 4.35135 9.09384 4.24491 8.83613C4.13847 8.57843 4.08649 8.30146 4.09223 8.02267C4.08611 7.74272 4.13789 7.46453 4.24432 7.20556C4.35074 6.9466 4.50952 6.71245 4.71068 6.51783C4.91061 6.31921 5.14887 6.16344 5.41093 6.06001C5.67299 5.95658 5.95335 5.90765 6.23492 5.91622C6.64959 5.90786 7.05707 6.02536 7.40372 6.25326C7.75038 6.48116 8.01995 6.80878 8.17696 7.19298L8.22733 7.31529L7.27282 7.64005L7.22576 7.53676C7.14496 7.34136 7.00721 7.17488 6.83046 7.05901Z" fill="#51BA8F"/>
</svg>

<svg xmlns="http://www.w3.org/2000/svg" width="16" height="16" fill="none"><path fill="#51BA8F" fill-rule="evenodd" d="M4.277 3.297a5.996 5.996 0 0 1 7.572.099A6.006 6.006 0 0 1 10.1 13.63l-.17.064.495-1.299.026-.014a5.012 5.012 0 0 0 2.554-4.59 5.016 5.016 0 0 0-2.942-4.352 5.006 5.006 0 0 0-6.785 2.895 5.018 5.018 0 0 0-.176 2.725l.016.064a5.036 5.036 0 0 0 4.878 3.89c.034 0 .068 0 .102-.002l.1-.002a.184.184 0 0 0 .16-.115l.226-.549.96-2.33-1.646-4.024h1.12l1.092 2.748 1.085-2.744h1.066l-2.73 6.645-.178.43-.083.204A1.175 1.175 0 0 1 8.237 14c-.079.005-.156.005-.238.005h-.013a6.044 6.044 0 0 1-2.551-.579l-.116-.05a6.002 6.002 0 0 1-3.158-6.75 6.005 6.005 0 0 1 2.116-3.33ZM6.83 7.059a1.05 1.05 0 0 0-.595-.172 1.036 1.036 0 0 0-.775.32 1.136 1.136 0 0 0-.318.817 1.121 1.121 0 0 0 .315.808 1.045 1.045 0 0 0 .775.319 1.03 1.03 0 0 0 .991-.646l.046-.107.958.325-.052.123a2.052 2.052 0 0 1-1.94 1.276A2.074 2.074 0 0 1 4.71 9.52a2.02 2.02 0 0 1-.619-1.497 2.033 2.033 0 0 1 .619-1.505 2.074 2.074 0 0 1 1.524-.602 2.052 2.052 0 0 1 1.942 1.277l.05.122-.954.325-.047-.103a1.052 1.052 0 0 0-.396-.478Z" clip-rule="evenodd"/></svg>
